X: 129
T:Susan Cooper
M:C
L:1/8
Q:224
K:D
|(3Bcd | dfed B2 dB | BAFA DAFB | ABde fa^ga | gafg e2 (3gfe |
dfed B2 dB | BAFA DAFB | ABde fa^ga | gABc d2 :|
|: dc | Bcde fB ~B2 | def^g a2 gf | eA (3AAA eAfA | g2 fg egfe | 
dfed B2 dB | BAFA DAFB | ABde fa^ga | gABc d2 :|
